public/icons/download_icon.svg

<svg width="16" height="16" viewBox="0 0 16 16" fill="none" xmlns="http://www.w3.org/2000/svg">
<path d="M12.2875 6.775C11.8908 4.61875 10.1233 3 8 3C6.31417 3 4.85 4.025 4.12083 5.525C2.365 5.725 1 7.31875 1 9.25C1 11.3187 2.56917 13 4.5 13H12.0833C13.6933 13 15 11.6 15 9.875C15 8.225 13.8042 6.8875 12.2875 6.775ZM10.9167 8.625L8.20417 11.5312C8.0875 11.6562 7.90667 11.6562 7.79 11.5312L5.08333 8.625H6.83333V6.125H9.16667V8.625H10.9167Z" fill="black"/>
</svg>

<svg width="16" height="16" fill="none" xmlns="http://www.w3.org/2000/svg"><path d="M12.287 6.775C11.891 4.619 10.123 3 8 3 6.314 3 4.85 4.025 4.12 5.525 2.366 5.725 1 7.319 1 9.25 1 11.319 2.57 13 4.5 13h7.583C13.693 13 15 11.6 15 9.875c0-1.65-1.196-2.987-2.713-3.1Zm-1.37 1.85-2.713 2.906a.276.276 0 0 1-.414 0L5.083 8.625h1.75v-2.5h2.334v2.5h1.75Z" fill="#000"/></svg>
